X:1
T:Satisfied
T:Satisfied
T:Ralph Erskine Hudson
T:Clara Tear Williams, 1875
T:Public Domain Courtesy of the Cyber Hymnal™
C:Ralph Erskine Hudson
Z:Public Domain
Z:Courtesy of the Cyber Hymnal™
%%score ( 1 2 ) 3
L:1/8
Q:1/4=100
M:3/4
K:Eb
V:1 treble 
V:2 treble 
V:3 bass 
V:1
 E[EF] | [EG]2 E2 [DF][FA] | [EG]2 E2 [EG][EG] | [EA]2 [Ac]2 | [GB][EG] | [DF]4 [EG][FA] | %6
w: 1.~All my|life I had a|long- ing For a|drink from|some clear|spring, That I|
w: 2.~Feed- ing|on the husks a-|round me, Till my|strength was|al- most|gone, Longed my|
w: 3.~Poor I|was, and sought for|rich- es, Some- thing|that would|sa- tis-|fy, But the|
w: 4.~Well of|wa- ter, ev- er|spring- ing, Bread of|life so|rich and|free, Un- told|
 [GB]2 [Be]2 [Bd][Ac] | [Ac]2 [GB]2 E[DF] | [EG]2 [EB]2 [DA][DF] | E4 ||"^Refrain" [GB][GB] | %11
w: hoped would quench the|burn- ing Of the|thirst I felt with-|in.||
w: soul for some- thing|bet- ter, On- ly|still to hun- ger|on.||
w: dust I ga- thered|round me On- ly|mocked my soul’s sad|cry.||
w: wealth that ne- ver|fail- eth, My Re-|deem- er is to|me.||
 [Ge]3 [GB] [Ac][GB] [GB]2 [EG]2 [GB][Ge] | [Fd]3 [DB] [Fd][Ec] | [DB]4 E[EG] | %14
w: |||
w: |||
w: |||
w: |||
 [GB]3 [GB] [Ac][GB] | [GB]2 [EG]2 E[EF] | [EG][FA] [EG]2 [DF]2 | E4 |] %18
w: ||||
w: ||||
w: ||||
w: ||||
V:2
 E x | x2 E2 x2 | x2 E2 x2 | x4 | x2 | x6 | x6 | x6 | x6 | E4 || x2 | x12 | x6 | x4 E x | x6 | %15
 x4 E x | x6 | E4 |] %18
V:3
 [E,G,][E,A,] | [E,B,]2 [E,G,]2 [B,,B,][D,B,] | [E,B,]2 [E,G,]2 [E,B,][E,B,] | [A,C]2 [A,E]2 | %4
w: ~ ~|~ ~ ~ ~|~ ~ ~ ~|~ ~|
 [E,E][E,B,] | [B,,B,]4 [E,B,][E,B,] | [E,E]2 [G,E]2 [A,E][A,E] | [E,E]2 [E,E]2 [G,B,][F,B,] | %8
w: ~ ~|~ ~ ~|~ ~ ~ ~|~ ~ ~ ~|
 [E,B,]2 [G,,B,]2 [B,,F,][B,,A,] | [E,G,]4 || [E,E][E,E] | %11
w: ~ ~ ~ ~|~|Hal- le-|
 [E,B,]3 [E,E] [E,E][E,E] [E,E]2 [E,B,]2 [E,B,][C,B,] | [F,B,]3 [F,B,] [F,=A,][F,A,] | %13
w: lu- jah! I have found Him Whom my|soul so long has|
 [B,,F,]4 [E,G,][E,B,] | [E,E]3 [E,E] [E,E][E,E] | [E,E]2 [E,B,]2 [G,B,][F,B,] | %16
w: craved! Je- sus|sa- tis- fies my|long- ings, Through His|
 [E,B,][A,,C] [B,,B,]2 [B,,A,]2 | [E,G,]4 |] %18
w: blood I now am|saved.|

